X:2
T:Come Dance and Sing
L:1/8
M:C|
K:D
((3ABc |: "D"d2)cd "A"e2de | "D"f2d2 (de)dc | "G"B2e2 (ef)ed | "A"c2A2 A2Bc |
 "D"d2cd "A"e2 de | "D"f2d2 (de)dc | "G"B2e2 "A"(dc)Bc |\
[1 "D"d4 d2 ((3ABc :|[2 "D"d4 D2AG ||
|: "D"F2A2 (AB)AG | F2A2 A2AG | F2A2 d2f2 | "A"(ed)cB (AB)AG |
"D"F2A2 (AB)AG | F2A2 A2((3ABc | d2)e2 (fe)fg |\
[1 "A"a4 A2AG :|[2 "A"a2A2 A2 ((3ABc |]
N:Fiddlers Fakebook, pg 72 - adapted by Peter Ostapenko.
N:Last update - PO 4/16/2007.
N:D Major
